file/optimism-brewing.svg

<svg clip-rule="evenodd" fill-rule="evenodd" stroke-linejoin="round" stroke-miterlimit="1.41421" viewBox="0 0 560 400" xmlns="http://www.w3.org/2000/svg"><g fill="#fbb715" fill-rule="nonzero" transform="matrix(1.23047 0 0 1.23047 6.83647 -6.71835)"><path d="m210.12 231.09c0 2.7-2.16 4.86-4.86 4.86s-4.86-2.16-4.86-4.86 2.16-4.86 4.86-4.86c2.7-.09 4.86 2.16 4.86 4.86z"/><path d="m273.21 156.66c-6.93 0-12.6 5.67-12.6 12.6s5.67 12.6 12.6 12.6 12.6-5.67 12.6-12.6c.09-6.93-5.58-12.6-12.6-12.6z"/><path d="m232.8 202.02c-2.16 0-3.96 1.8-3.96 3.96s1.8 3.87 3.96 3.87 3.87-1.8 3.87-3.87c0-2.16-1.71-3.96-3.87-3.96z"/><path d="m176.1 186.99c-2.07 0-3.69 1.71-3.69 3.69 0 2.07 1.71 3.69 3.69 3.69 2.07 0 3.69-1.71 3.69-3.69.09-2.07-1.62-3.69-3.69-3.69z"/><path d="m217.23 156.03c-3.15 0-5.76 2.61-5.76 5.76s2.61 5.76 5.76 5.76 5.76-2.61 5.76-5.76c0-3.24-2.52-5.76-5.76-5.76z"/><path d="m202.74 152.52c-.99 0-1.71.81-1.71 1.71 0 .99.81 1.71 1.71 1.71.99 0 1.71-.81 1.71-1.71s-.81-1.71-1.71-1.71z"/><path d="m222.99 72.24c-1.26 0-2.25.99-2.25 2.25s.99 2.25 2.25 2.25 2.25-.99 2.25-2.25c.09-1.17-.99-2.25-2.25-2.25z"/><path d="m226.95 178.44c-1.44 0-2.7 1.17-2.7 2.7s1.17 2.7 2.7 2.7c1.44 0 2.7-1.17 2.7-2.7s-1.26-2.7-2.7-2.7z"/><path d="m254.94 181.14c-4.23 0-7.65 3.42-7.65 7.65s3.42 7.65 7.65 7.65 7.65-3.42 7.65-7.65-3.42-7.65-7.65-7.65z"/><path d="m255.93 97.98c-3.6 0-6.48 2.88-6.48 6.48s2.88 6.48 6.48 6.48 6.48-2.88 6.48-6.48c0-3.51-2.97-6.48-6.48-6.48z"/><path d="m246.48 171.33c-2.43 0-4.5 1.98-4.5 4.5 0 2.43 1.98 4.5 4.5 4.5 2.43 0 4.5-1.98 4.5-4.5-.09-2.43-2.07-4.5-4.5-4.5z"/><path d="m249 217.77c-3.24 0-5.85 2.61-5.85 5.76 0 3.24 2.61 5.85 5.85 5.85s5.76-2.61 5.76-5.85c.09-3.15-2.52-5.76-5.76-5.76z"/><path d="m204.81 74.58c-5.49 0-9.99 4.5-9.99 9.99s4.5 9.99 9.99 9.99 9.99-4.5 9.99-9.99c0-5.58-4.5-9.99-9.99-9.99z"/><path d="m197.7 160.98c-4.14 0-7.47 3.33-7.47 7.47s3.33 7.47 7.47 7.47 7.47-3.33 7.47-7.47-3.33-7.47-7.47-7.47z"/><path d="m183.12 120.75c-4.68 0-8.55 3.87-8.55 8.55s3.78 8.55 8.55 8.55c4.68 0 8.55-3.78 8.55-8.55-.09-4.68-3.87-8.55-8.55-8.55z"/><path d="m233.52 105.27c-9.9 0-17.91 8.01-17.91 17.91s8.01 17.91 17.91 17.91c9.81 0 17.82-8.01 17.82-17.91.09-9.9-7.92-17.91-17.82-17.91z"/><path d="m199.5 101.49c-1.62 0-2.97 1.35-2.97 2.97s1.35 2.97 2.97 2.97 2.97-1.35 2.97-2.97c.09-1.62-1.26-2.97-2.97-2.97z"/><path d="m150.9 245.76c-1.53 0-2.43 1.17-2.43 3.06 0 1.8.9 2.97 2.43 2.97s2.43-1.17 2.43-2.97c0-1.89-.9-3.06-2.43-3.06zm0 12.33c-5.85 0-10.17-3.33-10.17-9.18s4.32-9.18 10.17-9.18 10.17 3.33 10.17 9.18-4.32 9.18-10.17 9.18z"/><path d="m173.76 245.76c-1.44 0-2.79 1.08-2.79 3.06s1.35 2.97 2.79 2.97c1.53 0 2.79-1.08 2.79-2.97 0-1.98-1.26-3.06-2.79-3.06zm2.52 12.33c-3.15 0-4.5-1.26-5.13-2.16.09.9.09 1.71.09 2.97v4.86h-7.74v-23.67h7.29l-.09 1.71c1.08-1.08 2.79-2.07 5.49-2.07 5.04 0 8.1 4.05 8.1 9.18.18 5.22-2.97 9.18-8.01 9.18z"/><path d="m199.32 245.76h-3.6v4.86c0 .99.54 1.17 1.35 1.17.9 0 1.71-.27 1.71-.27l.36 5.94c-.72.18-2.61.63-4.86.63s-3.78-.63-4.86-1.53c-1.08-.99-1.53-2.52-1.53-5.13v-5.67h-2.43v-5.67h2.43v-4.32h7.74v4.32h3.6v5.67z"/><path d="m201.39 240.09h7.74v17.64h-7.74z"/><path d="m241.98 257.73h-7.74v-9c0-1.71-.36-2.7-1.53-2.7s-1.53.99-1.53 2.7v9h-7.74v-9c0-1.71-.36-2.7-1.53-2.7s-1.53.99-1.53 2.7v9h-7.74v-17.64h7.74l-.09 2.25c.99-1.35 2.52-2.61 4.77-2.61s4.32.54 5.22 2.97c1.35-2.07 2.88-2.97 5.67-2.97 4.32 0 6.21 2.79 6.21 7.47v10.53z"/><path d="m245.13 240.09h7.83v17.64h-7.83z"/><path d="m303.09 257.73h-7.74v-9c0-1.71-.36-2.7-1.53-2.7s-1.53.99-1.53 2.7v9h-7.74v-9c0-1.71-.36-2.7-1.53-2.7s-1.53.99-1.53 2.7v9h-7.74v-17.64h7.74l-.09 2.25c.99-1.35 2.52-2.61 4.77-2.61s4.32.54 5.22 2.97c1.35-2.07 2.88-2.97 5.67-2.97 4.32 0 6.21 2.79 6.21 7.47v10.53z"/><path d="m254.49 255.03 3.15-3.69c1.98 1.53 4.41 1.89 6.48 1.89 1.08 0 1.53-.27 1.53-.81v-.09c0-.54-.54-.81-2.52-1.17-4.05-.81-7.65-1.98-7.65-5.85v.09c0-3.42 2.7-6.12 7.74-6.12 3.51 0 6.12.81 8.19 2.52l-2.79 3.87c-2.52-1.71-4.95-1.8-6.03-1.62-.36.09-.9.27-.9.72v.09c0 .45.45.81 2.43 1.17 4.68.9 7.74 2.25 7.74 5.85v.09c0 3.78-3.15 6.12-8.01 6.12-3.69 0-7.02-.99-9.36-3.06z"/></g></svg>

<?xml version="1.0" encoding="UTF-8" standalone="no"?>
<!DOCTYPE svg PUBLIC "-//W3C//DTD SVG 1.1//EN" "http://www.w3.org/Graphics/SVG/1.1/DTD/svg11.dtd">
<svg width="100%" height="100%" viewBox="0 0 560 400" version="1.1" xmlns="http://www.w3.org/2000/svg" xmlns:xlink="http://www.w3.org/1999/xlink" xml:space="preserve" xmlns:serif="http://www.serif.com/" style="fill-rule:evenodd;clip-rule:evenodd;stroke-linejoin:round;stroke-miterlimit:1.41421;">
    <g transform="matrix(1.23047,0,0,1.23047,6.83647,-6.71835)">
        <path d="M210.12,231.09C210.12,233.79 207.96,235.95 205.26,235.95C202.56,235.95 200.4,233.79 200.4,231.09C200.4,228.39 202.56,226.23 205.26,226.23C207.96,226.14 210.12,228.39 210.12,231.09Z" style="fill:rgb(251,183,21);fill-rule:nonzero;"/>
        <path d="M273.21,156.66C266.28,156.66 260.61,162.33 260.61,169.26C260.61,176.19 266.28,181.86 273.21,181.86C280.14,181.86 285.81,176.19 285.81,169.26C285.9,162.33 280.23,156.66 273.21,156.66Z" style="fill:rgb(251,183,21);fill-rule:nonzero;"/>
        <path d="M232.8,202.02C230.64,202.02 228.84,203.82 228.84,205.98C228.84,208.14 230.64,209.85 232.8,209.85C234.96,209.85 236.67,208.05 236.67,205.98C236.67,203.82 234.96,202.02 232.8,202.02Z" style="fill:rgb(251,183,21);fill-rule:nonzero;"/>
        <path d="M176.1,186.99C174.03,186.99 172.41,188.7 172.41,190.68C172.41,192.75 174.12,194.37 176.1,194.37C178.17,194.37 179.79,192.66 179.79,190.68C179.88,188.61 178.17,186.99 176.1,186.99Z" style="fill:rgb(251,183,21);fill-rule:nonzero;"/>
        <path d="M217.23,156.03C214.08,156.03 211.47,158.64 211.47,161.79C211.47,164.94 214.08,167.55 217.23,167.55C220.38,167.55 222.99,164.94 222.99,161.79C222.99,158.55 220.47,156.03 217.23,156.03Z" style="fill:rgb(251,183,21);fill-rule:nonzero;"/>
        <path d="M202.74,152.52C201.75,152.52 201.03,153.33 201.03,154.23C201.03,155.22 201.84,155.94 202.74,155.94C203.73,155.94 204.45,155.13 204.45,154.23C204.45,153.33 203.64,152.52 202.74,152.52Z" style="fill:rgb(251,183,21);fill-rule:nonzero;"/>
        <path d="M222.99,72.24C221.73,72.24 220.74,73.23 220.74,74.49C220.74,75.75 221.73,76.74 222.99,76.74C224.25,76.74 225.24,75.75 225.24,74.49C225.33,73.32 224.25,72.24 222.99,72.24Z" style="fill:rgb(251,183,21);fill-rule:nonzero;"/>
        <path d="M226.95,178.44C225.51,178.44 224.25,179.61 224.25,181.14C224.25,182.67 225.42,183.84 226.95,183.84C228.39,183.84 229.65,182.67 229.65,181.14C229.65,179.61 228.39,178.44 226.95,178.44Z" style="fill:rgb(251,183,21);fill-rule:nonzero;"/>
        <path d="M254.94,181.14C250.71,181.14 247.29,184.56 247.29,188.79C247.29,193.02 250.71,196.44 254.94,196.44C259.17,196.44 262.59,193.02 262.59,188.79C262.59,184.56 259.17,181.14 254.94,181.14Z" style="fill:rgb(251,183,21);fill-rule:nonzero;"/>
        <path d="M255.93,97.98C252.33,97.98 249.45,100.86 249.45,104.46C249.45,108.06 252.33,110.94 255.93,110.94C259.53,110.94 262.41,108.06 262.41,104.46C262.41,100.95 259.44,97.98 255.93,97.98Z" style="fill:rgb(251,183,21);fill-rule:nonzero;"/>
        <path d="M246.48,171.33C244.05,171.33 241.98,173.31 241.98,175.83C241.98,178.26 243.96,180.33 246.48,180.33C248.91,180.33 250.98,178.35 250.98,175.83C250.89,173.4 248.91,171.33 246.48,171.33Z" style="fill:rgb(251,183,21);fill-rule:nonzero;"/>
        <path d="M249,217.77C245.76,217.77 243.15,220.38 243.15,223.53C243.15,226.77 245.76,229.38 249,229.38C252.24,229.38 254.76,226.77 254.76,223.53C254.85,220.38 252.24,217.77 249,217.77Z" style="fill:rgb(251,183,21);fill-rule:nonzero;"/>
        <path d="M204.81,74.58C199.32,74.58 194.82,79.08 194.82,84.57C194.82,90.06 199.32,94.56 204.81,94.56C210.3,94.56 214.8,90.06 214.8,84.57C214.8,78.99 210.3,74.58 204.81,74.58Z" style="fill:rgb(251,183,21);fill-rule:nonzero;"/>
        <path d="M197.7,160.98C193.56,160.98 190.23,164.31 190.23,168.45C190.23,172.59 193.56,175.92 197.7,175.92C201.84,175.92 205.17,172.59 205.17,168.45C205.17,164.31 201.84,160.98 197.7,160.98Z" style="fill:rgb(251,183,21);fill-rule:nonzero;"/>
        <path d="M183.12,120.75C178.44,120.75 174.57,124.62 174.57,129.3C174.57,133.98 178.35,137.85 183.12,137.85C187.8,137.85 191.67,134.07 191.67,129.3C191.58,124.62 187.8,120.75 183.12,120.75Z" style="fill:rgb(251,183,21);fill-rule:nonzero;"/>
        <path d="M233.52,105.27C223.62,105.27 215.61,113.28 215.61,123.18C215.61,133.08 223.62,141.09 233.52,141.09C243.33,141.09 251.34,133.08 251.34,123.18C251.43,113.28 243.42,105.27 233.52,105.27Z" style="fill:rgb(251,183,21);fill-rule:nonzero;"/>
        <path d="M199.5,101.49C197.88,101.49 196.53,102.84 196.53,104.46C196.53,106.08 197.88,107.43 199.5,107.43C201.12,107.43 202.47,106.08 202.47,104.46C202.56,102.84 201.21,101.49 199.5,101.49Z" style="fill:rgb(251,183,21);fill-rule:nonzero;"/>
        <path d="M150.9,245.76C149.37,245.76 148.47,246.93 148.47,248.82C148.47,250.62 149.37,251.79 150.9,251.79C152.43,251.79 153.33,250.62 153.33,248.82C153.33,246.93 152.43,245.76 150.9,245.76ZM150.9,258.09C145.05,258.09 140.73,254.76 140.73,248.91C140.73,243.06 145.05,239.73 150.9,239.73C156.75,239.73 161.07,243.06 161.07,248.91C161.07,254.76 156.75,258.09 150.9,258.09Z" style="fill:rgb(251,183,21);fill-rule:nonzero;"/>
        <path d="M173.76,245.76C172.32,245.76 170.97,246.84 170.97,248.82C170.97,250.8 172.32,251.79 173.76,251.79C175.29,251.79 176.55,250.71 176.55,248.82C176.55,246.84 175.29,245.76 173.76,245.76ZM176.28,258.09C173.13,258.09 171.78,256.83 171.15,255.93C171.24,256.83 171.24,257.64 171.24,258.9L171.24,263.76L163.5,263.76L163.5,240.09L170.79,240.09L170.7,241.8C171.78,240.72 173.49,239.73 176.19,239.73C181.23,239.73 184.29,243.78 184.29,248.91C184.47,254.13 181.32,258.09 176.28,258.09Z" style="fill:rgb(251,183,21);fill-rule:nonzero;"/>
        <path d="M199.32,245.76L195.72,245.76L195.72,250.62C195.72,251.61 196.26,251.79 197.07,251.79C197.97,251.79 198.78,251.52 198.78,251.52L199.14,257.46C198.42,257.64 196.53,258.09 194.28,258.09C192.03,258.09 190.5,257.46 189.42,256.56C188.34,255.57 187.89,254.04 187.89,251.43L187.89,245.76L185.46,245.76L185.46,240.09L187.89,240.09L187.89,235.77L195.63,235.77L195.63,240.09L199.23,240.09L199.23,245.76L199.32,245.76Z" style="fill:rgb(251,183,21);fill-rule:nonzero;"/>
        <rect x="201.39" y="240.09" width="7.74" height="17.64" style="fill:rgb(251,183,21);fill-rule:nonzero;"/>
        <path d="M241.98,257.73L234.24,257.73L234.24,248.73C234.24,247.02 233.88,246.03 232.71,246.03C231.54,246.03 231.18,247.02 231.18,248.73L231.18,257.73L223.44,257.73L223.44,248.73C223.44,247.02 223.08,246.03 221.91,246.03C220.74,246.03 220.38,247.02 220.38,248.73L220.38,257.73L212.64,257.73L212.64,240.09L220.38,240.09L220.29,242.34C221.28,240.99 222.81,239.73 225.06,239.73C227.31,239.73 229.38,240.27 230.28,242.7C231.63,240.63 233.16,239.73 235.95,239.73C240.27,239.73 242.16,242.52 242.16,247.2L242.16,257.73L241.98,257.73Z" style="fill:rgb(251,183,21);fill-rule:nonzero;"/>
        <rect x="245.13" y="240.09" width="7.83" height="17.64" style="fill:rgb(251,183,21);fill-rule:nonzero;"/>
        <path d="M303.09,257.73L295.35,257.73L295.35,248.73C295.35,247.02 294.99,246.03 293.82,246.03C292.65,246.03 292.29,247.02 292.29,248.73L292.29,257.73L284.55,257.73L284.55,248.73C284.55,247.02 284.19,246.03 283.02,246.03C281.85,246.03 281.49,247.02 281.49,248.73L281.49,257.73L273.75,257.73L273.75,240.09L281.49,240.09L281.4,242.34C282.39,240.99 283.92,239.73 286.17,239.73C288.42,239.73 290.49,240.27 291.39,242.7C292.74,240.63 294.27,239.73 297.06,239.73C301.38,239.73 303.27,242.52 303.27,247.2L303.27,257.73L303.09,257.73Z" style="fill:rgb(251,183,21);fill-rule:nonzero;"/>
        <path d="M254.49,255.03L257.64,251.34C259.62,252.87 262.05,253.23 264.12,253.23C265.2,253.23 265.65,252.96 265.65,252.42L265.65,252.33C265.65,251.79 265.11,251.52 263.13,251.16C259.08,250.35 255.48,249.18 255.48,245.31L255.48,245.4C255.48,241.98 258.18,239.28 263.22,239.28C266.73,239.28 269.34,240.09 271.41,241.8L268.62,245.67C266.1,243.96 263.67,243.87 262.59,244.05C262.23,244.14 261.69,244.32 261.69,244.77L261.69,244.86C261.69,245.31 262.14,245.67 264.12,246.03C268.8,246.93 271.86,248.28 271.86,251.88L271.86,251.97C271.86,255.75 268.71,258.09 263.85,258.09C260.16,258.09 256.83,257.1 254.49,255.03Z" style="fill:rgb(251,183,21);fill-rule:nonzero;"/>
    </g>
</svg>
